icons/codescan-checkmark-16.svg

<svg width="16" height="16" viewBox="0 0 16 16" fill="none" xmlns="http://www.w3.org/2000/svg">
<path d="M10.2803 6.28033C10.5732 5.98744 10.5732 5.51256 10.2803 5.21967C9.98744 4.92678 9.51256 4.92678 9.21967 5.21967L6.25 8.18934L5.28033 7.21967C4.98744 6.92678 4.51256 6.92678 4.21967 7.21967C3.92678 7.51256 3.92678 7.98744 4.21967 8.28033L5.71967 9.78033C6.01256 10.0732 6.48744 10.0732 6.78033 9.78033L10.2803 6.28033Z" fill="black"/>
<path fill-rule="evenodd" clip-rule="evenodd" d="M7.5 15C9.30095 15 10.9536 14.3652 12.2465 13.3072L14.7197 15.7803C15.0126 16.0732 15.4874 16.0732 15.7803 15.7803C16.0732 15.4874 16.0732 15.0126 15.7803 14.7197L13.3072 12.2465C14.3652 10.9536 15 9.30095 15 7.5C15 3.35786 11.6421 0 7.5 0C3.35786 0 0 3.35786 0 7.5C0 11.6421 3.35786 15 7.5 15ZM7.5 1.5C4.18629 1.5 1.5 4.18629 1.5 7.5C1.5 10.8137 4.18629 13.5 7.5 13.5C9.08239 13.5 10.5217 12.8874 11.5937 11.8865C11.6269 11.8267 11.6689 11.7704 11.7197 11.7197C11.7704 11.6689 11.8267 11.6269 11.8865 11.5937C12.8874 10.5217 13.5 9.08239 13.5 7.5C13.5 4.18629 10.8137 1.5 7.5 1.5Z" fill="black"/>
</svg>

<svg xmlns="http://www.w3.org/2000/svg" width="16" height="16" viewBox="0 0 16 16"><path d="M10.28 6.28a.75.75 0 10-1.06-1.06L6.25 8.19l-.97-.97a.75.75 0 00-1.06 1.06l1.5 1.5a.75.75 0 001.06 0l3.5-3.5z"/><path fill-rule="evenodd" d="M7.5 15a7.469 7.469 0 004.746-1.693l2.474 2.473a.75.75 0 101.06-1.06l-2.473-2.474A7.5 7.5 0 107.5 15zm0-13.5a6 6 0 104.094 10.386.75.75 0 01.293-.292A6 6 0 007.5 1.5z"/></svg>
